X:11
T:Fermanagh Highland
R:highland
D:Altan: Island Angel
Z:id:hn-hf-11
M:C|
K:D
A2FD A<ddB|A2FD EFGB|A2FA ~A2FA|1 BGEG FD (3dcB:|2 BGEG F<DD2||
|:dAFA ~f3e|dAFA B<eef|1 dAFA ~f3A|GFEF GABc:|2 d2cd BdA2|(3Bcd ec d2 (3dcB||
<end>
<start>
